tools/download-figma-icons/icons/outlined-medium/townhall-alt.svg

<svg width="24" height="24" viewBox="0 0 24 24" fill="none" xmlns="http://www.w3.org/2000/svg">
<path fill-rule="evenodd" clip-rule="evenodd" d="M1.55364 1.22146C1.66754 0.936713 1.94332 0.75 2.25 0.75H12.75C13.0567 0.75 13.3325 0.936713 13.4464 1.22146L14.9464 4.97146C15.0388 5.20253 15.0106 5.46439 14.8711 5.67047C14.7315 5.87655 14.4989 6 14.25 6H13.5V8.25H21.75C22.0728 8.25 22.3594 8.45657 22.4615 8.76283L23.9615 13.2628C24.0378 13.4915 23.9994 13.743 23.8584 13.9385C23.7175 14.1341 23.4911 14.25 23.25 14.25H22.5V22.5C22.5 22.9142 22.1642 23.25 21.75 23.25H12.75H9.75H5.25H2.25C2.05109 23.25 1.86032 23.171 1.71967 23.0303C1.57902 22.8897 1.5 22.6989 1.5 22.5V6H0.75C0.501132 6 0.268472 5.87655 0.12895 5.67047C-0.0105729 5.46439 -0.0387847 5.20253 0.0536425 4.97146L1.55364 1.22146ZM21 14.25H19.125H16.5H13.875H13.5V21.75H21V14.25ZM13.5 12.75H13.875H16.5H19.125H21.75H22.2094L21.2094 9.75H13.5V12.75ZM12 9V6H10.125C9.99448 6 9.86622 5.96594 9.7529 5.90118L7.5 4.61381L5.2471 5.90118C5.14086 5.96189 5.02149 5.99562 4.89944 5.9996C4.89131 5.99987 4.88316 6 4.875 6H3V21.75H4.5V17.9118C4.5 17.6536 4.63273 17.4137 4.85138 17.2765L7.10138 15.8647C7.34512 15.7118 7.65488 15.7118 7.89862 15.8647L10.1486 17.2765C10.3673 17.4137 10.5 17.6536 10.5 17.9118V21.75H12V14.0915V13.5V9ZM13.1422 4.5H12.75H10.3242L7.8721 3.09882C7.64153 2.96706 7.35847 2.96706 7.1279 3.09882L4.67583 4.5H2.25H1.85777L2.75777 2.25H12.2422L13.1422 4.5ZM9 21.75V18.3266L7.5 17.3854L6 18.3266V21.75H9ZM7.5 8.75C6.5335 8.75 5.75 9.5335 5.75 10.5C5.75 11.4665 6.5335 12.25 7.5 12.25C8.46649 12.25 9.25 11.4665 9.25 10.5C9.25 9.5335 8.46649 8.75 7.5 8.75ZM4.25 10.5C4.25 8.70507 5.70507 7.25 7.5 7.25C9.29492 7.25 10.75 8.70507 10.75 10.5C10.75 12.2949 9.29492 13.75 7.5 13.75C5.70507 13.75 4.25 12.2949 4.25 10.5ZM18.75 19.25C19.1642 19.25 19.5 18.9142 19.5 18.5C19.5 18.0858 19.1642 17.75 18.75 17.75H15.75C15.3358 17.75 15 18.0858 15 18.5C15 18.9142 15.3358 19.25 15.75 19.25H18.75Z" fill="black"/>
</svg>

<svg xmlns="http://www.w3.org/2000/svg" width="24" height="24" fill="none" viewBox="0 0 24 24"><path fill="currentColor" fill-rule="evenodd" d="M1.554 1.221A.75.75 0 0 1 2.25.75h10.5a.75.75 0 0 1 .696.471l1.5 3.75A.75.75 0 0 1 14.25 6h-.75v2.25h8.25a.75.75 0 0 1 .712.513l1.5 4.5a.75.75 0 0 1-.712.987h-.75v8.25a.75.75 0 0 1-.75.75H2.25a.75.75 0 0 1-.75-.75V6H.75a.75.75 0 0 1-.696-1.029zM21 14.25h-7.5v7.5H21zm-7.5-1.5h8.71l-1-3H13.5zM12 9V6h-1.875a.75.75 0 0 1-.372-.099L7.5 4.614 5.247 5.9a.75.75 0 0 1-.372.1H3v15.75h1.5v-3.838a.75.75 0 0 1 .351-.636l2.25-1.411a.75.75 0 0 1 .798 0l2.25 1.411a.75.75 0 0 1 .351.636v3.838H12zm1.142-4.5h-2.818L7.872 3.099a.75.75 0 0 0-.744 0L4.676 4.5H1.858l.9-2.25h9.484zM9 21.75v-3.423l-1.5-.942-1.5.942v3.423zm-1.5-13a1.75 1.75 0 1 0 0 3.5 1.75 1.75 0 0 0 0-3.5M4.25 10.5a3.25 3.25 0 1 1 6.5 0 3.25 3.25 0 0 1-6.5 0m14.5 8.75a.75.75 0 0 0 0-1.5h-3a.75.75 0 0 0 0 1.5z" clip-rule="evenodd"/></svg>
